SF_Symbols/theatermask.and.paintbrush.fill.svg

<?xml version="1.0" encoding="UTF-8"?>
<svg xmlns="http://www.w3.org/2000/svg" xmlns:xlink="http://www.w3.org/1999/xlink" width="24" height="24" viewBox="0 0 24 24" version="1.1">
<g id="surface1">
<path style=" stroke:none;fill-rule:nonzero;fill:rgb(100%,100%,100%);fill-opacity:1;" d="M 2.550781 11.992188 C 3 13.691406 3.738281 15.007812 4.761719 15.945312 C 5.792969 16.878906 7.027344 17.375 8.464844 17.4375 C 8.570312 17.15625 8.710938 16.867188 8.878906 16.574219 C 9.046875 16.28125 9.265625 16.011719 9.535156 15.769531 C 9.753906 15.488281 9.996094 15.242188 10.265625 15.039062 C 10.539062 14.832031 10.835938 14.664062 11.148438 14.53125 C 11.183594 14.207031 11.242188 13.886719 11.324219 13.574219 C 11.414062 13.261719 11.511719 12.976562 11.625 12.710938 C 11.414062 12.886719 11.167969 13.042969 10.894531 13.179688 C 10.625 13.3125 10.335938 13.421875 10.023438 13.507812 C 9.484375 13.648438 8.953125 13.683594 8.429688 13.621094 C 7.910156 13.558594 7.425781 13.398438 6.976562 13.132812 C 6.53125 12.867188 6.160156 12.492188 5.859375 12.019531 C 5.753906 11.84375 5.746094 11.695312 5.839844 11.570312 C 5.933594 11.445312 6.085938 11.394531 6.289062 11.417969 C 6.902344 11.488281 7.488281 11.472656 8.042969 11.371094 C 8.601562 11.273438 9.054688 11.171875 9.414062 11.070312 C 9.742188 10.976562 10.164062 10.835938 10.679688 10.648438 C 11.195312 10.460938 11.695312 10.195312 12.179688 9.851562 C 12.367188 9.714844 12.527344 9.679688 12.664062 9.742188 C 12.808594 9.804688 12.882812 9.9375 12.882812 10.144531 C 12.875 10.3125 12.863281 10.472656 12.84375 10.621094 C 12.824219 10.773438 12.792969 10.914062 12.75 11.042969 C 13.125 10.570312 13.570312 10.019531 14.082031 9.394531 C 14.601562 8.769531 15.132812 8.140625 15.683594 7.507812 L 14.335938 2.511719 C 14.117188 1.710938 13.734375 1.164062 13.191406 0.863281 C 12.648438 0.554688 11.964844 0.507812 11.148438 0.722656 L 2.8125 2.945312 C 1.992188 3.164062 1.429688 3.539062 1.117188 4.078125 C 0.804688 4.609375 0.757812 5.28125 0.976562 6.09375 Z M 5.785156 8.269531 C 5.476562 8.351562 5.273438 8.46875 5.164062 8.625 C 5.058594 8.78125 4.941406 8.882812 4.808594 8.925781 C 4.714844 8.949219 4.625 8.921875 4.539062 8.839844 C 4.457031 8.757812 4.390625 8.632812 4.339844 8.464844 C 4.234375 8.089844 4.28125 7.730469 4.480469 7.386719 C 4.6875 7.039062 4.992188 6.8125 5.390625 6.710938 C 5.765625 6.601562 6.128906 6.644531 6.476562 6.84375 C 6.835938 7.039062 7.0625 7.332031 7.164062 7.726562 C 7.207031 7.886719 7.210938 8.023438 7.171875 8.136719 C 7.140625 8.242188 7.070312 8.308594 6.964844 8.335938 C 6.839844 8.367188 6.691406 8.34375 6.515625 8.269531 C 6.339844 8.195312 6.097656 8.195312 5.785156 8.269531 Z M 10.929688 6.882812 C 10.617188 6.957031 10.410156 7.074219 10.304688 7.238281 C 10.195312 7.394531 10.078125 7.492188 9.945312 7.527344 C 9.851562 7.546875 9.761719 7.519531 9.675781 7.445312 C 9.585938 7.367188 9.523438 7.25 9.476562 7.085938 C 9.367188 6.699219 9.414062 6.335938 9.617188 5.992188 C 9.832031 5.648438 10.132812 5.425781 10.527344 5.324219 C 10.914062 5.21875 11.28125 5.261719 11.625 5.457031 C 11.976562 5.648438 12.199219 5.945312 12.300781 6.335938 C 12.34375 6.492188 12.347656 6.628906 12.308594 6.742188 C 12.273438 6.847656 12.207031 6.914062 12.113281 6.9375 C 11.980469 6.96875 11.828125 6.945312 11.652344 6.871094 C 11.476562 6.789062 11.238281 6.792969 10.929688 6.882812 Z M 7.226562 22.273438 C 7.710938 22.761719 8.273438 23.132812 8.914062 23.390625 C 9.566406 23.652344 10.238281 23.792969 10.929688 23.8125 C 11.625 23.835938 12.292969 23.738281 12.9375 23.511719 C 13.582031 23.292969 14.144531 22.945312 14.625 22.472656 C 15.167969 21.929688 15.539062 21.347656 15.730469 20.726562 C 15.929688 20.109375 15.949219 19.492188 15.789062 18.882812 C 15.625 18.261719 15.285156 17.695312 14.765625 17.175781 C 14.296875 16.707031 13.773438 16.382812 13.191406 16.210938 C 12.617188 16.027344 12.054688 15.992188 11.503906 16.105469 C 10.953125 16.210938 10.484375 16.460938 10.097656 16.855469 C 9.765625 17.195312 9.546875 17.53125 9.441406 17.867188 C 9.335938 18.207031 9.273438 18.53125 9.261719 18.84375 C 9.257812 19.15625 9.230469 19.445312 9.1875 19.714844 C 9.148438 19.992188 9.027344 20.230469 8.820312 20.4375 C 8.589844 20.675781 8.367188 20.824219 8.15625 20.886719 C 7.949219 20.957031 7.757812 21.003906 7.585938 21.027344 C 7.410156 21.058594 7.257812 21.132812 7.132812 21.253906 C 6.996094 21.382812 6.929688 21.539062 6.929688 21.722656 C 6.933594 21.902344 7.035156 22.085938 7.226562 22.273438 Z M 14.878906 15.75 C 15.273438 16.023438 15.621094 16.351562 15.929688 16.726562 C 16.242188 17.101562 16.460938 17.464844 16.585938 17.820312 C 16.945312 17.691406 17.269531 17.507812 17.550781 17.277344 C 17.835938 17.039062 18.101562 16.75 18.347656 16.40625 C 18.390625 16.34375 18.433594 16.28125 18.476562 16.21875 C 18.523438 16.15625 18.5625 16.089844 18.601562 16.023438 C 18.398438 15.484375 18.121094 14.992188 17.765625 14.550781 C 17.410156 14.101562 16.996094 13.710938 16.527344 13.386719 C 16.058594 13.054688 15.554688 12.800781 15.007812 12.617188 C 14.472656 12.4375 13.921875 12.347656 13.359375 12.347656 C 13.308594 12.410156 13.257812 12.476562 13.210938 12.542969 C 13.160156 12.613281 13.109375 12.679688 13.058594 12.75 C 12.820312 13.09375 12.644531 13.445312 12.523438 13.800781 C 12.40625 14.148438 12.351562 14.507812 12.355469 14.867188 C 12.726562 14.863281 13.136719 14.941406 13.59375 15.101562 C 14.054688 15.257812 14.484375 15.476562 14.878906 15.75 Z M 20.304688 4.539062 C 20.21875 4.613281 20.0625 4.757812 19.835938 4.96875 C 19.617188 5.179688 19.34375 5.453125 19.011719 5.785156 C 18.6875 6.109375 18.324219 6.480469 17.925781 6.898438 C 17.53125 7.320312 17.117188 7.773438 16.679688 8.257812 C 16.242188 8.746094 15.800781 9.257812 15.355469 9.789062 C 14.914062 10.320312 14.484375 10.863281 14.070312 11.417969 C 15.171875 11.5625 16.175781 11.953125 17.082031 12.589844 C 17.992188 13.222656 18.707031 14.039062 19.21875 15.039062 C 19.59375 14.429688 19.941406 13.820312 20.257812 13.199219 C 20.585938 12.582031 20.878906 11.976562 21.140625 11.382812 C 21.410156 10.789062 21.648438 10.226562 21.863281 9.695312 C 22.074219 9.164062 22.257812 8.683594 22.40625 8.257812 C 22.5625 7.828125 22.691406 7.46875 22.789062 7.179688 C 22.890625 6.886719 22.960938 6.683594 22.996094 6.570312 C 23.140625 6.171875 23.1875 5.808594 23.136719 5.484375 C 23.085938 5.152344 22.96875 4.871094 22.78125 4.640625 C 22.59375 4.410156 22.363281 4.242188 22.085938 4.144531 C 21.8125 4.042969 21.519531 4.023438 21.207031 4.085938 C 20.898438 4.144531 20.601562 4.292969 20.304688 4.539062 Z M 20.304688 4.539062 "/>
</g>
</svg>

<svg xmlns="http://www.w3.org/2000/svg" width="24" height="24"><path style="stroke:none;fill-rule:nonzero;fill:#fff;fill-opacity:1" d="M2.55 11.992c.45 1.7 1.188 3.016 2.212 3.953 1.031.934 2.265 1.43 3.703 1.492.105-.28.246-.57.414-.863.168-.293.387-.562.656-.804a3.903 3.903 0 0 1 1.613-1.239c.036-.324.094-.644.176-.957.09-.312.188-.597.301-.863-.21.176-.457.332-.73.469-.27.133-.56.242-.872.328a4.296 4.296 0 0 1-1.593.113 3.706 3.706 0 0 1-1.453-.488 3.382 3.382 0 0 1-1.118-1.113c-.105-.176-.113-.325-.02-.45.095-.125.247-.175.45-.152.613.07 1.2.055 1.754-.047.46-.078.918-.176 1.371-.3.328-.094.75-.235 1.266-.423a6.211 6.211 0 0 0 1.5-.796c.187-.137.347-.172.484-.11.145.063.219.195.219.403-.008.168-.02.328-.04.476-.019.145-.05.285-.093.422.375-.473.82-1.023 1.332-1.648.52-.625 1.05-1.254 1.602-1.887l-1.348-4.996c-.219-.801-.602-1.348-1.145-1.649-.543-.308-1.226-.355-2.043-.14L2.813 2.945c-.82.22-1.383.594-1.696 1.133-.312.531-.36 1.203-.14 2.016ZM5.786 8.27c-.308.082-.512.199-.62.355-.106.156-.224.258-.356.3-.094.024-.184-.003-.27-.085a.894.894 0 0 1-.2-.375 1.356 1.356 0 0 1 .141-1.078c.207-.348.512-.574.91-.676.376-.11.739-.066 1.087.133.359.195.585.488.687.883.043.16.047.296.008.41a.27.27 0 0 1-.207.199c-.125.031-.274.008-.45-.066-.175-.075-.417-.075-.73 0Zm5.145-1.387c-.313.074-.52.191-.625.355-.11.157-.227.254-.36.29-.093.019-.183-.008-.27-.083-.09-.078-.152-.195-.198-.36-.11-.386-.063-.75.14-1.093.215-.344.516-.566.91-.668.371-.11.766-.062 1.098.133.352.191.574.488.676.879a.686.686 0 0 1 .008.406c-.036.106-.102.172-.196.196-.133.03-.285.007-.46-.067-.176-.082-.415-.078-.723.012Zm-3.703 15.39c.484.489 1.046.86 1.687 1.118.64.261 1.324.402 2.016.422a5.396 5.396 0 0 0 2.008-.301 4.417 4.417 0 0 0 1.687-1.04c.543-.542.914-1.124 1.105-1.745.2-.618.22-1.235.06-1.844-.165-.621-.505-1.188-1.024-1.707-.47-.469-.993-.793-1.575-.965a3.259 3.259 0 0 0-1.687-.106 2.612 2.612 0 0 0-1.406.75c-.332.34-.551.676-.657 1.012-.105.34-.168.664-.18.977a5.913 5.913 0 0 1-.073.87 1.228 1.228 0 0 1-.368.724c-.23.238-.453.386-.664.449-.207.07-.398.117-.57.14a.85.85 0 0 0-.453.227.627.627 0 0 0-.203.469c.004.18.105.363.297.55Zm7.652-6.523c.394.273.742.602 1.05.977.313.375.532.738.657 1.093.36-.129.684-.312.965-.543.3-.254.57-.547.797-.87l.129-.188c.046-.063.085-.13.125-.196a5.24 5.24 0 0 0-.836-1.472 5.746 5.746 0 0 0-1.239-1.164 5.797 5.797 0 0 0-1.52-.77 5.134 5.134 0 0 0-1.648-.27c-.05.063-.101.13-.148.196-.05.07-.102.137-.152.207a4.232 4.232 0 0 0-.536 1.05 3.292 3.292 0 0 0-.168 1.067c.372-.004.782.074 1.239.235.46.156.89.375 1.285.648Zm5.426-11.21c-.086.073-.242.218-.47.429-.218.21-.491.484-.823.816-.364.367-.727.738-1.086 1.113-.395.422-.809.875-1.246 1.36-.438.488-.88 1-1.325 1.531a39.885 39.885 0 0 0-1.285 1.629 6.63 6.63 0 0 1 3.012 1.172 6.59 6.59 0 0 1 2.137 2.45c.375-.61.722-1.22 1.039-1.84.328-.618.62-1.223.883-1.817.27-.594.507-1.156.722-1.688.192-.476.371-.953.543-1.437.157-.43.285-.79.383-1.078.102-.293.172-.496.207-.61.145-.398.192-.761.14-1.086a1.713 1.713 0 0 0-.355-.843 1.581 1.581 0 0 0-1.574-.555c-.309.059-.605.207-.902.453Zm0 0"/></svg>
